X:1
M:4/4
L:1/4
K:Am
V:1
"Am"e2dc | "G"BAGB | "Am"A4- | "G"A4 | "Am"e2de | "C"gede | "E"e4- | e4 | "Am"a2bc' | "G"bge2 | "F"f2ga | "C"gec2 | "Am"e2dc | "E"BAGB | "Am"A4- | "G"A4 |]
w:Sing hal-le-lu-jah to the Lord._ Sing hal-le-lu-jah to the Lord._ Sing hal-le-lu -jah, sing hal-le-lu -jah. Sing hal-le-lu-jah to the Lord_
V:2
z4 | z4 | e2dc | BAGB | A4- | A4 | e2ee | ^g2ab | [c'4a4] |b4 | a4 | g4 | e2dc | BAGB | A4- | A4 |]
w:Sing hal-le-lu-jah to the Lord._ Sing hal-le-lu-ja-_ hal-le-lu-jah, sing hal-le-lu-jah to the Lord._X:1M:4/4L:1/4K:EmV:1"Em"B2AG | "B"FEDF | "Em"E4- | E4 | "Em"B2AB | "Am"dBAB | "B"B4- | B4 | "Em"e2fg | "D"fdB2 | "C"c2de | "G"dBG2 | "Em"B2AG | "B"FEDF | "Em"E4- | E4 |]w: Sing hal-le-lu-jah to the Lord._ Sing hal-le-lu-jah to the Lord._ Sing hal-le-lu -jah, sing hal-le-lu -jah. Sing hal-le-lu-jah to the Lord_V:2z4 | z4 | B2AG | FEDF | E4- | E4 | B2BB | ^d2ef | [g4e4] |f4 | e4 | d4 | B2AG | FEDF | E4- | E4 |]w: Sing hal-le-lu-jah to the Lord._ Sing hal-le-lu-ja-_ hal-le-lu-jah, sing hal-le-lu-jah to the Lord._